!!!COM: Anon.
!!!OTL: Antoninho vais a\ aula
!!!OTL: Romanceiro Folclorico do Brasil
!!!CNT: Brasil
!!!OCY: Brasil
!!!ODT: <1971///
!!!PSR: Irmaos Vitale
!!!PSP: Sao Paulo, Brasil
!!!PDT: 1949///
!!!PPE: Rossini Tavares de Lima
!!!PPG: page 35
!! Romance: Antoniho
!! Place: Barbacena, Minas Gerais, Brasil
**kern
*clefG2
*k[]
*M3/4
*MM100
8.G
16G
=
4e
8.e
16d
8.f
16e
=
4c
4c
8.G
16G
=
4e
8.e
16d
8.e
16f
=
2g
8.c
16c
=
4f
8.f
16a
8.g
16f
=
4e
4g
8.e
16c
=
4d
8.d
16f
8.e
16d
=
2g
8.c
16c
=
4f
8.f
16a
8.g
16f
=
4e
4g
8.e
16c
=
4d
8.d
16f
8.e
16d
=
2c
==
*-
